X:1
T:When I Go Home
T:Charles Hutchinson Gabriel
T:When I Go Home
T:Public Domain
T:Public Domain
C:Charles Hutchinson Gabriel
Z:Public Domain
%%score ( 1 2 ) 3
L:1/8
M:3/4
K:F
V:1 treble 
V:2 treble 
V:3 bass 
V:1
 F[FA]>[FA] | [FA]3 [CG] [CF][FA] | [Fc]>[Fd] [Fc]3 F | [FA]4 [FA]2 | [EG]3 F [FA]>[FA] | %5
w: 1.~A lit- tle|and then the sum-|mer day, When I|home; ’Tis|lone- some win- ter|
w: 2.~Work ceas- es|in sun- shine or|in show’r, Till I|home; But|in the still- ness|
w: 3.~All will be|and all be hap-|pi- ness, When I|home; The|wan- der- ings all|
w: 4.~I’ll meet the|ones I have lost|a- while, When I|home; And,|best of all, I’ll|
 [FA]3 [CG] [CF][FA] | [Fc]>[Fd] [Fc]3 F | [FA]4 [EG]2 | F4 [Fc]2 | [Fd]>[Fd] [Fd]3 [DB] | %10
w: but ’twill be May,|When I go home;|yond the|gloom of|and fen I see|
w: the twi- light hour,|I dream of home;|when the|night wind|a- cross the wold,|
w: and lone- li- ness,|When I go home;|will be|light at|ven- tide for me,|
w: my Sav- ior smile,|When I go home;|what a|joy thro’|e- ter- ni- ty,|
 [DF][DB] [Fd]>[Fd] [Fc][FA] | [Ec]>[EG] [EG]3 [EG] | [DF][DF] [EG][EG] [FA][_EF] | [DF]4 [Fd]2 | %14
w: the wel- come warm of those|who wait for me,|When I go home, when I|go home.|
w: I feel no dread of dark,|or chill of cold—|I dream of home, I dream|of home.|
w: The light that ne- ver was|on land or sea,|When I go home, when I|go home.|
w: To sing the praise of Him|who died for me,|When I go home, when I|go home.|
 [Fc]4 F2 | [FA]4 [CG]2 | [CF]3 |] %17
w: |||
w: |||
w: |||
w: |||
V:2
 F x2 | x6 | x5 F | x6 | x3 F x2 | x6 | x5 F | x6 | F4 x2 | x6 | x6 | x6 | x6 | x6 | x4 F2 | x6 | %16
w: while,||go||now,||Be-||moor||||||||
w: not||go||of||And||moans||||||||
w: well,||go||o’er,||There||e-||||||||
w: loved||go||see||Oh,||all||||||||
 x3 |] %17
w: |
w: |
w: |
w: |
V:3
 [F,A,][F,C]>[F,C] | [F,C]3 [F,B,] [F,A,][F,C] | [F,A,]>[F,B,] [F,A,]3 [F,A,] | [F,C]4 [F,C]2 | %4
 [C,C]3 [F,A,] [F,C]>[F,C] | [F,C]3 [F,B,] [F,A,][F,C] | [F,A,]>[F,B,] [F,A,]3 [F,A,] | %7
 [C,C]4 [C,B,]2 | [F,A,]4 [F,A,]2 | [B,,B,]>[B,,B,] [B,,B,]3 [B,,F,] | %10
 [B,,B,][B,,F,] [B,,B,]>[B,,B,] [F,A,][F,C] | [C,C]>[C,C] [C,C]3 [C,B,] | %12
 [D,A,][D,A,] [C,C][C,C] [C,C][A,,C] | [B,,B,]4 [B,,B,]2 | [F,A,]4 [F,A,]2 | [C,C]4 [C,B,]2 | %16
 [F,,F,A,]3 |] %17

